svg/u1f6f6.svg

<svg viewBox="0 0 128 128" xmlns="http://www.w3.org/2000/svg">
  <g>
    <path d="M117.14,64.48c0,0-7.12,4.14-16.96,5.96c-8.1,1.5-24.81,3.1-36.45,3.1s-30.2-1.1-37.44-2.39 c-8.89-1.58-15.95-6.43-15.95-6.43S6.91,77.18,25.58,81.02c16.74,3.44,47.16,6.51,74.67,0C123.34,75.55,117.14,64.48,117.14,64.48 z" fill="#F3AB47"/>
    <path d="M123.91,79.16c-1.12-5.65-6.4-14.43-6.4-14.43s-3.49,8.24-17.86,12.15 c-5.61,1.52-20.78,3.29-35.76,3.53c-14.98-0.24-29.37-1.38-34.98-2.9C14.53,73.6,10.35,64.73,10.35,64.73s-5.42,8.77-6.5,14.43 c-2.25,11.77,3.59,18.31,22.09,22.88c8.87,2.19,24.2,3.34,39.5,3.37c15.3-0.02,30.63-1.18,39.5-3.37 C123.46,97.46,126.21,90.78,123.91,79.16z" fill="#A65F3E"/>
    <path d="M16.28,78.37c0.18,0.64-0.08,1.3-0.31,1.92c-1.2,3.32-1.64,7.46-0.74,10.88 c0.19,0.71,0.52,1.61,0.86,2.4c0.28,0.66-0.35,1.28-1.04,1.09c-1.35-0.38-4.25-2.19-6.27-6.31c-1.58-3.21-1.27-6.92-0.55-10.32 c0.33-1.59,1.6-5.31,3.62-3.85C12.4,74.58,16.12,77.83,16.28,78.37z" fill="#F29657"/>
    <path d="M76.05,81.02c0,0,1.95,9.84,0.47,16.54c-1.63,7.33-3.16,7.72-3.16,7.72s10.96-0.15,13.8-0.69 l-7.4-23.82L76.05,81.02z" fill="#874D36"/>
    <path d="M63.74,75.54c-28.01,0.21-40.62-3.3-41.03-3.38l-2.79,2.05c0,0,10.84,6.05,44.14,6.05 c33.3,0,45.47-6.98,45.47-6.98l-4.4-2.02C104.53,71.38,88.77,75.35,63.74,75.54z" fill="#874D36"/>
    <g>
      <path d="M100.33,123.51l9.02-5.13c1.59-1.01,1.35-2.31,0.78-3.51c-2.46-5.13-9.29-15.41-13.27-21.07 c-4.01-5.69-14.59-14.18-14.59-14.18l-3.22,1.79c0,0,3.56,13.66,5.27,18.98c2.84,8.8,9.29,17.78,12.61,22.61 C97.73,124.17,98.98,124.27,100.33,123.51z" fill="#F3AB47"/>
      <line fill="none" stroke="#F3AB47" stroke-width="4" stroke-miterlimit="10" x1="59.76" x2="102.63" y1="44.12" y2="118.71"/>
      <path d="M62.79,45.4l-3.43,2.02c-1.17-1.9-2.4-2.47-3.75-2.73c-0.74-0.14-1.44-0.79-1.63-1.6 c-0.19-0.81,0.16-1.58,1.07-2.11l3.96-2.36c0.86-0.51,1.79-0.57,2.51-0.02c0.63,0.48,0.88,1.51,0.57,2.54 C61.68,42.57,62.07,43.59,62.79,45.4z" fill="#BDBDBD"/>
    </g>
    <path d="M117.51,64.73c-0.28-0.45-0.63-0.09-0.63-0.09c-0.03,0.09-3.08,8.68-18.22,11.89 c-5.72,1.21-19.86,2.63-34.76,2.88c-13.9-0.23-28.84-1.46-34.77-2.87c-13.57-3.24-18.61-11.72-18.78-11.8c0,0-0.65,0.25-0.05,1.77 s5.51,8.92,18.36,11.98c6.15,1.46,20.95,2.69,35.23,2.93c15.06-0.25,29.4-1.54,35.18-2.92c14-3.35,17.58-10.56,18-11.35 S117.78,65.18,117.51,64.73z" fill="#F3AB47"/>
    <g>
      <polygon points="65.72,79.6 62.56,79.6 63.12,75.14 65.26,75.14 " fill="#F3AB47"/>
      <polygon points="40.8,78.78 30.43,77.78 35.03,73.61 45.16,74.4 " fill="#F3AB47"/>
      <polygon points="87.9,78.6 97.57,76.87 93.35,72.82 83.41,73.8 " fill="#F3AB47"/>
    </g>
  </g>
</svg>

<svg viewBox="0 0 128 128" xmlns="http://www.w3.org/2000/svg">
  <defs/>
  <path d="M117.14,64.48 C117.14,64.48 110.02,68.62 100.18,70.44 C92.08,71.94 75.37,73.54 63.73,73.54 C52.09,73.54 33.53,72.44 26.29,71.15 C17.4,69.57 10.34,64.72 10.34,64.72 C10.34,64.72 6.91,77.18 25.58,81.02 C42.32,84.46 72.74,87.53 100.25,81.02 C123.34,75.55 117.14,64.48 117.14,64.48 Z" fill="#F3AB47"/>
  <path d="M123.91,79.16 C122.79,73.51 117.51,64.73 117.51,64.73 C117.51,64.73 114.02,72.97 99.65,76.88 C94.04,78.4 78.87,80.17 63.89,80.41 C48.91,80.17 34.52,79.03 28.91,77.51 C14.53,73.6 10.35,64.73 10.35,64.73 C10.35,64.73 4.93,73.5 3.85,79.16 C1.6,90.93 7.44,97.47 25.94,102.04 C34.81,104.23 50.14,105.38 65.44,105.41 C80.74,105.39 96.07,104.23 104.94,102.04 C123.46,97.46 126.21,90.78 123.91,79.16 Z" fill="#A65F3E"/>
  <path d="M16.28,78.37 C16.46,79.01 16.2,79.67 15.97,80.29 C14.77,83.61 14.33,87.75 15.23,91.17 C15.42,91.88 15.75,92.78 16.09,93.57 C16.37,94.23 15.74,94.85 15.05,94.66 C13.7,94.28 10.8,92.47 8.78,88.35 C7.2,85.14 7.51,81.43 8.23,78.03 C8.56,76.44 9.83,72.72 11.85,74.18 C12.4,74.58 16.12,77.83 16.28,78.37 Z" fill="#F29657"/>
  <path d="M76.05,81.02 C76.05,81.02 78,90.86 76.52,97.56 C74.89,104.89 73.36,105.28 73.36,105.28 C73.36,105.28 84.32,105.13 87.16,104.59 L79.76,80.77 L76.05,81.02 Z" fill="#874D36"/>
  <path d="M63.74,75.54 C35.73,75.75 23.12,72.24 22.71,72.16 L19.92,74.21 C19.92,74.21 30.76,80.26 64.06,80.26 C97.36,80.26 109.53,73.28 109.53,73.28 L105.13,71.26 C104.53,71.38 88.77,75.35 63.74,75.54 Z" fill="#874D36"/>
  <path d="M100.33,123.51 L109.35,118.38 C110.94,117.37 110.7,116.07 110.13,114.87 C107.67,109.74 100.84,99.46 96.86,93.8 C92.85,88.11 82.27,79.62 82.27,79.62 L79.05,81.41 C79.05,81.41 82.61,95.07 84.32,100.39 C87.16,109.19 93.61,118.17 96.93,123 C97.73,124.17 98.98,124.27 100.33,123.51 Z" fill="#F3AB47"/>
  <path d="M61.494,43.123 L104.364,117.713 L100.896,119.707 L58.026,45.117 L61.494,43.123 Z" fill="#F3AB47"/>
  <path d="M62.79,45.4 L59.36,47.42 C58.19,45.52 56.96,44.95 55.61,44.69 C54.87,44.55 54.17,43.9 53.98,43.09 C53.79,42.28 54.14,41.51 55.05,40.98 L59.01,38.62 C59.87,38.11 60.8,38.05 61.52,38.6 C62.15,39.08 62.4,40.11 62.09,41.14 C61.68,42.57 62.07,43.59 62.79,45.4 Z" fill="#BDBDBD"/>
  <path d="M117.51,64.73 C117.23,64.28 116.88,64.64 116.88,64.64 C116.85,64.73 113.8,73.32 98.66,76.53 C92.94,77.74 78.8,79.16 63.9,79.41 C50,79.18 35.06,77.95 29.13,76.54 C15.56,73.3 10.52,64.82 10.35,64.74 C10.35,64.74 9.7,64.99 10.3,66.51 C10.9,68.03 15.81,75.43 28.66,78.49 C34.81,79.95 49.61,81.18 63.89,81.42 C78.95,81.17 93.29,79.88 99.07,78.5 C113.07,75.15 116.65,67.94 117.07,67.15 C117.49,66.36 117.78,65.18 117.51,64.73 Z" fill="#F3AB47"/>
  <path d="M65.72,79.6 L62.56,79.6 L63.12,75.14 L65.26,75.14 Z" fill="#F3AB47"/>
  <path d="M40.8,78.78 L30.43,77.78 L35.03,73.61 L45.16,74.4 Z" fill="#F3AB47"/>
  <path d="M87.9,78.6 L97.57,76.87 L93.35,72.82 L83.41,73.8 Z" fill="#F3AB47"/>
</svg>
